images/basic-sector-implied/basic-sector-implied-exit-4-3.svg

<svg xmlns="http://www.w3.org/2000/svg" focusable="false" aria-hidden="true" width="203" height="260" style="pointer-events: none; position: absolute; left: 0px; top: 0px; transform-origin: left top; z-index: 20;"><defs/><g><g><g><g><rect x="0" y="0" width="193" height="250" rx="0" ry="0" style="fill: #333; stroke: none;stroke-miterlimit: 10;"/></g><g transform="translate(10.00000000000000000000,10.00000000000000000000)"><g transform="translate(5.00000000000000000000,5.00000000000000000000)"><g><g transform="translate(0.37500000000000000000,30.00000000000000000000)"><g><g transform="translate(30.00000000000000000000,0.00000000000000000000)"><g transform="scale(30.00000000000000000000)"><g><path d="M 0.00000000000000006123 1.00000000000000000000 L 0.00000000000000000000 0.00000000000000000000 L 1.00000000000000000000 0.00000000000000000000 L 0.00000000000000006123 1.00000000000000000000 Z " style="fill: #000; stroke: none;stroke-miterlimit: 10;"/></g><g><path d="M -1.00000000000000000000 0.00000000000000012246 L 0.00000000000000000000 0.00000000000000000000 L 0.00000000000000006123 1.00000000000000000000 L -1.00000000000000000000 0.00000000000000012246 Z " style="fill: #000; stroke: none;stroke-miterlimit: 10;"/></g><g><path d="M -0.00000000000000018370 -1.00000000000000000000 L 0.00000000000000000000 0.00000000000000000000 L -1.00000000000000000000 0.00000000000000012246 L -0.00000000000000018370 -1.00000000000000000000 Z " style="fill: #000; stroke: none;stroke-miterlimit: 10;"/></g><g><path d="M 0.00000000000000001531 0.25000000000000000000 A 0.25000000000000000000 0.25000000000000000000 0 0 0 0.25000000000000000000 -0.00000000000000006123 " style="fill: none; stroke: rgb(224,124,31);stroke-width: 0.02;stroke-miterlimit: 10;stroke-dasharray: 0.03,0.03;stroke-dashoffset: 0;"/></g><g><path d="M -0.22000000000000000111 0.00000000000000002694 A 0.22000000000000000111 0.22000000000000000111 0 0 0 0.00000000000000006736 0.22000000000000000111 M -0.28000000000000002665 0.00000000000000003429 A 0.28000000000000002665 0.28000000000000002665 0 0 0 0.00000000000000008573 0.28000000000000002665 " style="fill: none; stroke: rgb(42,137,42);stroke-width: 0.02;stroke-miterlimit: 10;stroke-dasharray: 0.03,0.03;stroke-dashoffset: 0;"/></g><g><line x1="0" y1="0" x2="1" y2="0" style="fill: none; stroke: rgba(255,255,255,0.2);stroke-width: 0.01;stroke-miterlimit: 10;"/></g><g><line x1="0" y1="0" x2="6.123233995736766e-17" y2="1" style="fill: none; stroke: rgba(255,255,255,0.2);stroke-width: 0.01;stroke-miterlimit: 10;"/></g><g><line x1="0" y1="0" x2="-1" y2="1.2246467991473532e-16" style="fill: none; stroke: rgba(255,255,255,0.2);stroke-width: 0.01;stroke-miterlimit: 10;"/></g><g><line x1="0" y1="0" x2="-1.8369701987210297e-16" y2="-1" style="fill: none; stroke: rgba(255,255,255,0.2);stroke-width: 0.01;stroke-miterlimit: 10;"/></g><g><circle r="0.06" style="fill: #222; stroke: rgba(255,255,255,0.2);stroke-width: 0.02;stroke-miterlimit: 10;"/></g><g><circle r="0.12" style="fill: none; stroke: #f00;stroke-width: 0.03;stroke-miterlimit: 10;"/></g></g></g><g transform="translate(70.50000000000000000000,0.00000000000000000000)"><path d="M 0.00000000000000003062 0.50000000000000000000 L 13.00000000000000000000 0.50000000000000000000 L 13.00000000000000000000 3.50000000000000000000 L 20.00000000000000000000 0.00000000000000000000 L 13.00000000000000000000 -3.50000000000000000000 L 13.00000000000000000000 -0.50000000000000000000 L -0.00000000000000003062 -0.50000000000000000000 L 0.00000000000000003062 0.50000000000000000000 Z " style="fill: #ccc; stroke: #ccc;stroke-miterlimit: 10;"/></g><g transform="translate(131.61803398874991444245,0.00000000000000000000)"><g transform="scale(30.00000000000000000000)"><g><path d="M 0.00000000000000006123 1.00000000000000000000 L 0.00000000000000000000 0.00000000000000000000 L 1.00000000000000000000 0.00000000000000000000 L 0.00000000000000006123 1.00000000000000000000 Z " style="fill: #000; stroke: none;stroke-miterlimit: 10;"/></g><g><path d="M -1.00000000000000000000 0.00000000000000012246 L 0.00000000000000000000 0.00000000000000000000 L 0.00000000000000006123 1.00000000000000000000 L -1.00000000000000000000 0.00000000000000012246 Z " style="fill: #000; stroke: none;stroke-miterlimit: 10;"/></g><g><path d="M -0.00000000000000018370 -1.00000000000000000000 L 0.00000000000000000000 0.00000000000000000000 L -1.00000000000000000000 0.00000000000000012246 L -0.00000000000000018370 -1.00000000000000000000 Z " style="fill: #000; stroke: none;stroke-miterlimit: 10;"/></g><g><path d="M 0.00000000000000001531 0.25000000000000000000 A 0.25000000000000000000 0.25000000000000000000 0 0 0 0.25000000000000000000 -0.00000000000000006123 " style="fill: none; stroke: rgb(224,124,31);stroke-width: 0.02;stroke-miterlimit: 10;stroke-dasharray: 0.03,0.03;stroke-dashoffset: 0;"/></g><g><path d="M -0.22000000000000000111 0.00000000000000002694 A 0.22000000000000000111 0.22000000000000000111 0 0 0 0.00000000000000006736 0.22000000000000000111 M -0.28000000000000002665 0.00000000000000003429 A 0.28000000000000002665 0.28000000000000002665 0 0 0 0.00000000000000008573 0.28000000000000002665 " style="fill: none; stroke: rgb(42,137,42);stroke-width: 0.02;stroke-miterlimit: 10;stroke-dasharray: 0.03,0.03;stroke-dashoffset: 0;"/></g><g><path d="M -0.00000000000000004041 -0.22000000000000000111 L -0.00000000000000008423 -0.22000000000000000111 A 0.22000000000000000111 0.22000000000000000111 0 0 0 -0.22000000000000000111 0.00000000000000002694 M -0.00000000000000005144 -0.28000000000000002665 L -0.00000000000000010720 -0.28000000000000002665 A 0.28000000000000002665 0.28000000000000002665 0 0 0 -0.28000000000000002665 0.00000000000000003429 " style="fill: none; stroke: rgb(42,137,42);stroke-width: 0.02;stroke-miterlimit: 10;stroke-dasharray: 0.03,0.03;stroke-dashoffset: 0;"/></g><g><line x1="0" y1="0" x2="1" y2="0" style="fill: none; stroke: rgba(255,255,255,0.2);stroke-width: 0.01;stroke-miterlimit: 10;"/></g><g><line x1="0" y1="0" x2="6.123233995736766e-17" y2="1" style="fill: none; stroke: rgba(255,255,255,0.2);stroke-width: 0.01;stroke-miterlimit: 10;"/></g><g><line x1="0" y1="0" x2="-1" y2="1.2246467991473532e-16" style="fill: none; stroke: rgba(255,255,255,0.2);stroke-width: 0.01;stroke-miterlimit: 10;"/></g><g><line x1="0" y1="0" x2="-1.8369701987210297e-16" y2="-1" style="fill: none; stroke: rgba(255,255,255,0.2);stroke-width: 0.01;stroke-miterlimit: 10;"/></g><g><circle r="0.06" style="fill: #222; stroke: rgba(255,255,255,0.2);stroke-width: 0.02;stroke-miterlimit: 10;"/></g><g><circle r="0.12" style="fill: none; stroke: #f00;stroke-width: 0.03;stroke-miterlimit: 10;"/></g></g></g></g></g><g transform="translate(0.37500000000000000000,110.00000000000000000000)"><g><g transform="translate(30.00000000000000000000,0.00000000000000000000)"><g transform="scale(30.00000000000000000000)"><g><path d="M 0.00000000000000006123 1.00000000000000000000 L 0.00000000000000000000 0.00000000000000000000 L 1.00000000000000000000 0.00000000000000000000 L 0.00000000000000006123 1.00000000000000000000 Z " style="fill: #000; stroke: none;stroke-miterlimit: 10;"/></g><g><path d="M -1.00000000000000000000 0.00000000000000012246 L 0.00000000000000000000 0.00000000000000000000 L 0.00000000000000006123 1.00000000000000000000 L -1.00000000000000000000 0.00000000000000012246 Z " style="fill: #000; stroke: none;stroke-miterlimit: 10;"/></g><g><path d="M -0.00000000000000018370 -1.00000000000000000000 L 0.00000000000000000000 0.00000000000000000000 L -1.00000000000000000000 0.00000000000000012246 L -0.00000000000000018370 -1.00000000000000000000 Z " style="fill: #000; stroke: none;stroke-miterlimit: 10;"/></g><g><path d="M 0.00000000000000001347 0.22000000000000000111 A 0.22000000000000000111 0.22000000000000000111 0 0 0 0.22000000000000000111 -0.00000000000000005388 M 0.00000000000000001715 0.28000000000000002665 A 0.28000000000000002665 0.28000000000000002665 0 0 0 0.28000000000000002665 -0.00000000000000006858 " style="fill: none; stroke: rgb(8,164,217);stroke-width: 0.02;stroke-miterlimit: 10;"/></g><g><path d="M -0.25000000000000000000 0.00000000000000003062 A 0.25000000000000000000 0.25000000000000000000 0 0 0 0.00000000000000007654 0.25000000000000000000 " style="fill: none; stroke: rgb(255,0,0);stroke-width: 0.02;stroke-miterlimit: 10;"/></g><g><path d="M -0.00000000000000004041 -0.22000000000000000111 L -0.00000000000000008423 -0.22000000000000000111 A 0.22000000000000000111 0.22000000000000000111 0 0 0 -0.22000000000000000111 0.00000000000000002694 M -0.00000000000000005144 -0.28000000000000002665 L -0.00000000000000010720 -0.28000000000000002665 A 0.28000000000000002665 0.28000000000000002665 0 0 0 -0.28000000000000002665 0.00000000000000003429 " style="fill: none; stroke: rgb(8,164,217);stroke-width: 0.02;stroke-miterlimit: 10;"/></g><g><line x1="0" y1="0" x2="1" y2="0" style="fill: none; stroke: rgba(255,255,255,0.2);stroke-width: 0.01;stroke-miterlimit: 10;"/></g><g><line x1="0" y1="0" x2="6.123233995736766e-17" y2="1" style="fill: none; stroke: rgba(255,255,255,0.2);stroke-width: 0.01;stroke-miterlimit: 10;"/></g><g><line x1="0" y1="0" x2="-1" y2="1.2246467991473532e-16" style="fill: none; stroke: rgba(255,255,255,0.2);stroke-width: 0.01;stroke-miterlimit: 10;"/></g><g><line x1="0" y1="0" x2="-1.8369701987210297e-16" y2="-1" style="fill: none; stroke: rgba(255,255,255,0.2);stroke-width: 0.01;stroke-miterlimit: 10;"/></g><g><circle r="0.06" style="fill: #222; stroke: rgba(255,255,255,0.2);stroke-width: 0.02;stroke-miterlimit: 10;"/></g></g></g><g transform="translate(70.50000000000000000000,0.00000000000000000000)"><path d="M 0.00000000000000003062 0.50000000000000000000 L 13.00000000000000000000 0.50000000000000000000 L 13.00000000000000000000 3.50000000000000000000 L 20.00000000000000000000 0.00000000000000000000 L 13.00000000000000000000 -3.50000000000000000000 L 13.00000000000000000000 -0.50000000000000000000 L -0.00000000000000003062 -0.50000000000000000000 L 0.00000000000000003062 0.50000000000000000000 Z " style="fill: #ccc; stroke: #ccc;stroke-miterlimit: 10;"/></g><g transform="translate(131.61803398874991444245,0.00000000000000000000)"><g transform="scale(30.00000000000000000000)"><g><path d="M 0.00000000000000006123 1.00000000000000000000 L 0.00000000000000000000 0.00000000000000000000 L 1.00000000000000000000 0.00000000000000000000 L 0.00000000000000006123 1.00000000000000000000 Z " style="fill: #000; stroke: none;stroke-miterlimit: 10;"/></g><g><path d="M -1.00000000000000000000 0.00000000000000012246 L 0.00000000000000000000 0.00000000000000000000 L 0.00000000000000006123 1.00000000000000000000 L -1.00000000000000000000 0.00000000000000012246 Z " style="fill: #000; stroke: none;stroke-miterlimit: 10;"/></g><g><path d="M -0.00000000000000018370 -1.00000000000000000000 L 0.00000000000000000000 0.00000000000000000000 L -1.00000000000000000000 0.00000000000000012246 L -0.00000000000000018370 -1.00000000000000000000 Z " style="fill: #000; stroke: none;stroke-miterlimit: 10;"/></g><g><path d="M 0.00000000000000001347 0.22000000000000000111 A 0.22000000000000000111 0.22000000000000000111 0 0 0 0.22000000000000000111 -0.00000000000000005388 M 0.00000000000000001715 0.28000000000000002665 A 0.28000000000000002665 0.28000000000000002665 0 0 0 0.28000000000000002665 -0.00000000000000006858 " style="fill: none; stroke: rgb(8,164,217);stroke-width: 0.02;stroke-miterlimit: 10;"/></g><g><path d="M -0.25000000000000000000 0.00000000000000003062 A 0.25000000000000000000 0.25000000000000000000 0 0 0 0.00000000000000007654 0.25000000000000000000 " style="fill: none; stroke: rgb(255,0,0);stroke-width: 0.02;stroke-miterlimit: 10;"/></g><g><path d="M -0.00000000000000004041 -0.22000000000000000111 L -0.00000000000000008423 -0.22000000000000000111 A 0.22000000000000000111 0.22000000000000000111 0 0 0 -0.22000000000000000111 0.00000000000000002694 M -0.00000000000000005144 -0.28000000000000002665 L -0.00000000000000010720 -0.28000000000000002665 A 0.28000000000000002665 0.28000000000000002665 0 0 0 -0.28000000000000002665 0.00000000000000003429 " style="fill: none; stroke: rgb(8,164,217);stroke-width: 0.02;stroke-miterlimit: 10;"/></g><g><line x1="0" y1="0" x2="1" y2="0" style="fill: none; stroke: rgba(255,255,255,0.2);stroke-width: 0.01;stroke-miterlimit: 10;"/></g><g><line x1="0" y1="0" x2="6.123233995736766e-17" y2="1" style="fill: none; stroke: rgba(255,255,255,0.2);stroke-width: 0.01;stroke-miterlimit: 10;"/></g><g><line x1="0" y1="0" x2="-1" y2="1.2246467991473532e-16" style="fill: none; stroke: rgba(255,255,255,0.2);stroke-width: 0.01;stroke-miterlimit: 10;"/></g><g><line x1="0" y1="0" x2="-1.8369701987210297e-16" y2="-1" style="fill: none; stroke: rgba(255,255,255,0.2);stroke-width: 0.01;stroke-miterlimit: 10;"/></g><g><circle r="0.06" style="fill: #222; stroke: rgba(255,255,255,0.2);stroke-width: 0.02;stroke-miterlimit: 10;"/></g><g><circle r="0.12" style="fill: none; stroke: #f00;stroke-width: 0.03;stroke-miterlimit: 10;"/></g></g></g></g></g><g transform="translate(0.00000000000000000000,190.00000000000000000000)"><g><g transform="translate(30.00000000000000000000,0.00000000000000000000)"><g transform="scale(30.00000000000000000000)"><g><path d="M 0.00000000000000006123 1.00000000000000000000 L 0.00000000000000000000 0.00000000000000000000 L 1.00000000000000000000 0.00000000000000000000 L 0.00000000000000006123 1.00000000000000000000 Z " style="fill: #000; stroke: none;stroke-miterlimit: 10;"/></g><g><path d="M -1.00000000000000000000 0.00000000000000012246 L 0.00000000000000000000 0.00000000000000000000 L 0.00000000000000006123 1.00000000000000000000 L -1.00000000000000000000 0.00000000000000012246 Z " style="fill: #000; stroke: none;stroke-miterlimit: 10;"/></g><g><path d="M -0.00000000000000018370 -1.00000000000000000000 L 0.00000000000000000000 0.00000000000000000000 L -1.00000000000000000000 0.00000000000000012246 L -0.00000000000000018370 -1.00000000000000000000 Z " style="fill: #000; stroke: none;stroke-miterlimit: 10;"/></g><g><path d="M 0.00000000000000001531 0.25000000000000000000 A 0.25000000000000000000 0.25000000000000000000 0 0 0 0.25000000000000000000 -0.00000000000000006123 " style="fill: none; stroke: rgb(224,124,31);stroke-width: 0.02;stroke-miterlimit: 10;stroke-dasharray: 0.03,0.03;stroke-dashoffset: 0;"/></g><g><path d="M -0.25000000000000000000 0.00000000000000003062 A 0.25000000000000000000 0.25000000000000000000 0 0 0 0.00000000000000007654 0.25000000000000000000 " style="fill: none; stroke: rgb(255,0,0);stroke-width: 0.02;stroke-miterlimit: 10;"/></g><g><path d="M -0.00000000000000004041 -0.22000000000000000111 L -0.00000000000000008423 -0.22000000000000000111 A 0.22000000000000000111 0.22000000000000000111 0 0 0 -0.22000000000000000111 0.00000000000000002694 M -0.00000000000000005144 -0.28000000000000002665 L -0.00000000000000010720 -0.28000000000000002665 A 0.28000000000000002665 0.28000000000000002665 0 0 0 -0.28000000000000002665 0.00000000000000003429 " style="fill: none; stroke: rgb(8,164,217);stroke-width: 0.02;stroke-miterlimit: 10;"/></g><g><line x1="0" y1="0" x2="1" y2="0" style="fill: none; stroke: rgba(255,255,255,0.2);stroke-width: 0.01;stroke-miterlimit: 10;"/></g><g><line x1="0" y1="0" x2="6.123233995736766e-17" y2="1" style="fill: none; stroke: rgba(255,255,255,0.2);stroke-width: 0.01;stroke-miterlimit: 10;"/></g><g><line x1="0" y1="0" x2="-1" y2="1.2246467991473532e-16" style="fill: none; stroke: rgba(255,255,255,0.2);stroke-width: 0.01;stroke-miterlimit: 10;"/></g><g><line x1="0" y1="0" x2="-1.8369701987210297e-16" y2="-1" style="fill: none; stroke: rgba(255,255,255,0.2);stroke-width: 0.01;stroke-miterlimit: 10;"/></g><g><circle r="0.06" style="fill: #222; stroke: rgba(255,255,255,0.2);stroke-width: 0.02;stroke-miterlimit: 10;"/></g></g></g><g transform="translate(70.50000000000000000000,0.00000000000000000000)"><path d="M 0.00000000000000003062 0.50000000000000000000 L 13.00000000000000000000 0.50000000000000000000 L 13.00000000000000000000 3.50000000000000000000 L 20.00000000000000000000 0.00000000000000000000 L 13.00000000000000000000 -3.50000000000000000000 L 13.00000000000000000000 -0.50000000000000000000 L -0.00000000000000003062 -0.50000000000000000000 L 0.00000000000000003062 0.50000000000000000000 Z " style="fill: #ccc; stroke: #ccc;stroke-miterlimit: 10;"/></g><g transform="translate(131.61803398874991444245,0.00000000000000000000)"><g transform="scale(30.00000000000000000000)"><g><path d="M 0.00000000000000006123 1.00000000000000000000 L 0.00000000000000000000 0.00000000000000000000 L 1.00000000000000000000 0.00000000000000000000 L 0.00000000000000006123 1.00000000000000000000 Z " style="fill: #000; stroke: none;stroke-miterlimit: 10;"/></g><g><path d="M -1.00000000000000000000 0.00000000000000012246 L 0.00000000000000000000 0.00000000000000000000 L 0.00000000000000006123 1.00000000000000000000 L -1.00000000000000000000 0.00000000000000012246 Z " style="fill: #000; stroke: none;stroke-miterlimit: 10;"/></g><g><path d="M -0.00000000000000018370 -1.00000000000000000000 L 0.00000000000000000000 0.00000000000000000000 L -1.00000000000000000000 0.00000000000000012246 L -0.00000000000000018370 -1.00000000000000000000 Z " style="fill: #000; stroke: none;stroke-miterlimit: 10;"/></g><g><path d="M -0.25000000000000000000 0.00000000000000003062 A 0.25000000000000000000 0.25000000000000000000 0 0 0 0.00000000000000007654 0.25000000000000000000 " style="fill: none; stroke: rgb(255,0,0);stroke-width: 0.02;stroke-miterlimit: 10;"/></g><g><path d="M -0.00000000000000004041 -0.22000000000000000111 L -0.00000000000000008423 -0.22000000000000000111 A 0.22000000000000000111 0.22000000000000000111 0 0 0 -0.22000000000000000111 0.00000000000000002694 M -0.00000000000000005144 -0.28000000000000002665 L -0.00000000000000010720 -0.28000000000000002665 A 0.28000000000000002665 0.28000000000000002665 0 0 0 -0.28000000000000002665 0.00000000000000003429 " style="fill: none; stroke: rgb(8,164,217);stroke-width: 0.02;stroke-miterlimit: 10;"/></g><g><line x1="0" y1="0" x2="1" y2="0" style="fill: none; stroke: rgba(255,255,255,0.2);stroke-width: 0.01;stroke-miterlimit: 10;"/></g><g><line x1="0" y1="0" x2="6.123233995736766e-17" y2="1" style="fill: none; stroke: rgba(255,255,255,0.2);stroke-width: 0.01;stroke-miterlimit: 10;"/></g><g><line x1="0" y1="0" x2="-1" y2="1.2246467991473532e-16" style="fill: none; stroke: rgba(255,255,255,0.2);stroke-width: 0.01;stroke-miterlimit: 10;"/></g><g><line x1="0" y1="0" x2="-1.8369701987210297e-16" y2="-1" style="fill: none; stroke: rgba(255,255,255,0.2);stroke-width: 0.01;stroke-miterlimit: 10;"/></g><g><circle r="0.06" style="fill: #222; stroke: rgba(255,255,255,0.2);stroke-width: 0.02;stroke-miterlimit: 10;"/></g><g><line x1="0" y1="0" x2="1" y2="0" style="fill: none; stroke: #f00;stroke-width: 0.05;stroke-linecap: round;stroke-miterlimit: 10;"/></g></g></g></g></g></g></g></g></g></g></g></svg>

<svg xmlns="http://www.w3.org/2000/svg" width="203" height="260" aria-hidden="true" style="pointer-events:none;position:absolute;left:0;top:0;transform-origin:left top;z-index:20"><rect width="193" height="250" rx="0" ry="0" style="fill:#333"/><path d="M0 1V0h1zm-1-1h1v1zm1-1v1h-1z" style="fill:#000" transform="matrix(30 0 0 30 45.375 45)"/><path d="M0 .25A.25.25 0 0 0 .25 0" style="fill:none;stroke:#e07c1f;stroke-width:.02;stroke-dasharray:.03,.03;stroke-dashoffset:0" transform="matrix(30 0 0 30 45.375 45)"/><path d="M-.22 0A.22.22 0 0 0 0 .22M-.28 0A.28.28 0 0 0 0 .28" style="fill:none;stroke:#2a892a;stroke-width:.02;stroke-dasharray:.03,.03;stroke-dashoffset:0" transform="matrix(30 0 0 30 45.375 45)"/><path d="M0 0h1M0 0v1m0-1h-1m1 0v-1" style="fill:none;stroke:rgba(255,255,255,.2);stroke-width:.01" transform="matrix(30 0 0 30 45.375 45)"/><circle r=".06" style="fill:#222;stroke:rgba(255,255,255,.2);stroke-width:.02" transform="matrix(30 0 0 30 45.375 45)"/><circle r=".12" style="fill:none;stroke:red;stroke-width:.03" transform="matrix(30 0 0 30 45.375 45)"/><path d="M0 .5h13v3L20 0l-7-3.5v3H0z" style="fill:#ccc;stroke:#ccc" transform="translate(85.875 45)"/><path d="M0 1V0h1zm-1-1h1v1zm1-1v1h-1z" style="fill:#000" transform="matrix(30 0 0 30 146.993 45)"/><path d="M0 .25A.25.25 0 0 0 .25 0" style="fill:none;stroke:#e07c1f;stroke-width:.02;stroke-dasharray:.03,.03;stroke-dashoffset:0" transform="matrix(30 0 0 30 146.993 45)"/><path d="M-.22 0A.22.22 0 0 0 0 .22M-.28 0A.28.28 0 0 0 0 .28m0-.5A.22.22 0 0 0-.22 0M0-.28A.28.28 0 0 0-.28 0" style="fill:none;stroke:#2a892a;stroke-width:.02;stroke-dasharray:.03,.03;stroke-dashoffset:0" transform="matrix(30 0 0 30 146.993 45)"/><path d="M0 0h1M0 0v1m0-1h-1m1 0v-1" style="fill:none;stroke:rgba(255,255,255,.2);stroke-width:.01" transform="matrix(30 0 0 30 146.993 45)"/><circle r=".06" style="fill:#222;stroke:rgba(255,255,255,.2);stroke-width:.02" transform="matrix(30 0 0 30 146.993 45)"/><circle r=".12" style="fill:none;stroke:red;stroke-width:.03" transform="matrix(30 0 0 30 146.993 45)"/><path d="M0 1V0h1zm-1-1h1v1zm1-1v1h-1z" style="fill:#000" transform="matrix(30 0 0 30 45.375 125)"/><path d="M0 .22A.22.22 0 0 0 .22 0M0 .28A.28.28 0 0 0 .28 0" style="fill:none;stroke:#08a4d9;stroke-width:.02" transform="matrix(30 0 0 30 45.375 125)"/><path d="M-.25 0A.25.25 0 0 0 0 .25" style="fill:none;stroke:red;stroke-width:.02" transform="matrix(30 0 0 30 45.375 125)"/><path d="M0-.22A.22.22 0 0 0-.22 0M0-.28A.28.28 0 0 0-.28 0" style="fill:none;stroke:#08a4d9;stroke-width:.02" transform="matrix(30 0 0 30 45.375 125)"/><path d="M0 0h1M0 0v1m0-1h-1m1 0v-1" style="fill:none;stroke:rgba(255,255,255,.2);stroke-width:.01" transform="matrix(30 0 0 30 45.375 125)"/><circle r=".06" style="fill:#222;stroke:rgba(255,255,255,.2);stroke-width:.02" transform="matrix(30 0 0 30 45.375 125)"/><path d="M0 .5h13v3L20 0l-7-3.5v3H0z" style="fill:#ccc;stroke:#ccc" transform="translate(85.875 125)"/><path d="M0 1V0h1zm-1-1h1v1zm1-1v1h-1z" style="fill:#000" transform="matrix(30 0 0 30 146.993 125)"/><path d="M0 .22A.22.22 0 0 0 .22 0M0 .28A.28.28 0 0 0 .28 0" style="fill:none;stroke:#08a4d9;stroke-width:.02" transform="matrix(30 0 0 30 146.993 125)"/><path d="M-.25 0A.25.25 0 0 0 0 .25" style="fill:none;stroke:red;stroke-width:.02" transform="matrix(30 0 0 30 146.993 125)"/><path d="M0-.22A.22.22 0 0 0-.22 0M0-.28A.28.28 0 0 0-.28 0" style="fill:none;stroke:#08a4d9;stroke-width:.02" transform="matrix(30 0 0 30 146.993 125)"/><path d="M0 0h1M0 0v1m0-1h-1m1 0v-1" style="fill:none;stroke:rgba(255,255,255,.2);stroke-width:.01" transform="matrix(30 0 0 30 146.993 125)"/><circle r=".06" style="fill:#222;stroke:rgba(255,255,255,.2);stroke-width:.02" transform="matrix(30 0 0 30 146.993 125)"/><circle r=".12" style="fill:none;stroke:red;stroke-width:.03" transform="matrix(30 0 0 30 146.993 125)"/><path d="M0 1V0h1zm-1-1h1v1zm1-1v1h-1z" style="fill:#000" transform="matrix(30 0 0 30 45 205)"/><path d="M0 .25A.25.25 0 0 0 .25 0" style="fill:none;stroke:#e07c1f;stroke-width:.02;stroke-dasharray:.03,.03;stroke-dashoffset:0" transform="matrix(30 0 0 30 45 205)"/><path d="M-.25 0A.25.25 0 0 0 0 .25" style="fill:none;stroke:red;stroke-width:.02" transform="matrix(30 0 0 30 45 205)"/><path d="M0-.22A.22.22 0 0 0-.22 0M0-.28A.28.28 0 0 0-.28 0" style="fill:none;stroke:#08a4d9;stroke-width:.02" transform="matrix(30 0 0 30 45 205)"/><path d="M0 0h1M0 0v1m0-1h-1m1 0v-1" style="fill:none;stroke:rgba(255,255,255,.2);stroke-width:.01" transform="matrix(30 0 0 30 45 205)"/><circle r=".06" style="fill:#222;stroke:rgba(255,255,255,.2);stroke-width:.02" transform="matrix(30 0 0 30 45 205)"/><path d="M0 .5h13v3L20 0l-7-3.5v3H0z" style="fill:#ccc;stroke:#ccc" transform="translate(85.5 205)"/><path d="M0 1V0h1zm-1-1h1v1zm1-1v1h-1z" style="fill:#000" transform="matrix(30 0 0 30 146.618 205)"/><path d="M-.25 0A.25.25 0 0 0 0 .25" style="fill:none;stroke:red;stroke-width:.02" transform="matrix(30 0 0 30 146.618 205)"/><path d="M0-.22A.22.22 0 0 0-.22 0M0-.28A.28.28 0 0 0-.28 0" style="fill:none;stroke:#08a4d9;stroke-width:.02" transform="matrix(30 0 0 30 146.618 205)"/><path d="M0 0h1M0 0v1m0-1h-1m1 0v-1" style="fill:none;stroke:rgba(255,255,255,.2);stroke-width:.01" transform="matrix(30 0 0 30 146.618 205)"/><circle r=".06" style="fill:#222;stroke:rgba(255,255,255,.2);stroke-width:.02" transform="matrix(30 0 0 30 146.618 205)"/><path d="M0 0h1" style="fill:none;stroke:red;stroke-width:.05;stroke-linecap:round" transform="matrix(30 0 0 30 146.618 205)"/></svg>
